images_sukapura_svg/cmd/32/resetattributes.svg

<svg viewBox="0 0 32 32" xmlns="http://www.w3.org/2000/svg"><path d="m15.892578 3.0058594-11.892578 22.0019526h3.6425781l2.6582029-5.138671h7.767578l.212891 1.849609 3.154297-3.154297-2.126953-15.5585936zm.710938 4.6835937.089843.015625 1.029297 9.0976559h-5.833984z" fill="#4b4b4f"/><path d="m4 27c-.554 0-1 .446-1 1s.446 1 1 1h6.248047 5.521484.460938 5.521484 6.248047c.1385 0 .270906-.02766.390625-.07813.359156-.151401.609375-.50637.609375-.92187 0-.554-.446-1-1-1h-4.28125-6.726562-1.984376-6.726562z" fill="#4b4b4f"/><g fill="#e68497" transform="matrix(1.1653014 0 0 1.1661584 3.181684 3.178357)"><path d="m16.518661 20.388672 6.495399-6.642082-2.741063-2.75182-6.590273 6.561871z"/><path d="m15.772982 22.159365c.189562 0 .429608-.133383.44116-.329846l.316238-1.423269-2.847656-2.849609-.435626 1.659226c-.0821.318377-.208228.48954.08228.779668l1.835938 1.833984c.145254.145064.418106.329846.607668.329846z" fill="#e7acbc"/><path d="m20.355929 10.602262c-.09431.0013-.184424.03917-.251411.105515l-6.590301 6.56201c-.04606.04577-.07905.10302-.09554.165809l-.435778 1.659763c-.000569.000565-.0011.0011-.0017.0017-.0337.130688-.09902.260727-.108945.473979-.0099.213251.09746.464282.286608.653186l1.835295 1.833947c.0988.09867.22144.194286.362031.276347.140591.08207.291132.15911.504497.15911.180396 0 .343642-.05253.492764-.154085.149161-.101592.297638-.276905.311789-.517565l-.107269.236152 6.105605-6.103388c.06701-.06667.105475-.156751.107269-.251226l.694204-1.979373c.0018-.0983-.03633-.19313-.105592-.26295l-2.740372-2.751757c-.06959-.06983-.16453-.1085-.263143-.107189z" fill="none" stroke="#b6496c"/><path d="m16.518661 20.388672 6.495399-6.642082-.725247 2.222352-6.352791 6.173541z" fill="#ab4263"/><path d="m14.170359 17.919585 6.151557-6.038122 2.362527 2.149586" fill="none" stroke="#f398b3" stroke-width=".857832"/></g></svg>

<?xml version="1.0" encoding="UTF-8" standalone="no"?>
<svg
   xmlns:dc="http://purl.org/dc/elements/1.1/"
   xmlns:cc="http://creativecommons.org/ns#"
   xmlns:rdf="http://www.w3.org/1999/02/22-rdf-syntax-ns#"
   xmlns:svg="http://www.w3.org/2000/svg"
   xmlns="http://www.w3.org/2000/svg"
   xmlns:sodipodi="http://sodipodi.sourceforge.net/DTD/sodipodi-0.dtd"
   xmlns:inkscape="http://www.inkscape.org/namespaces/inkscape"
   viewBox="0 0 32 32"
   version="1.1"
   id="svg25381"
   sodipodi:docname="resetattributes.svg"
   inkscape:version="0.92.3 (2405546, 2018-03-11)">
  <metadata
     id="metadata25387">
    <rdf:RDF>
      <cc:Work
         rdf:about="">
        <dc:format>image/svg+xml</dc:format>
        <dc:type
           rdf:resource="http://purl.org/dc/dcmitype/StillImage" />
      </cc:Work>
    </rdf:RDF>
  </metadata>
  <defs
     id="defs25385" />
  <sodipodi:namedview
     pagecolor="#ffffff"
     bordercolor="#666666"
     borderopacity="1"
     objecttolerance="10"
     gridtolerance="10"
     guidetolerance="10"
     inkscape:pageopacity="0"
     inkscape:pageshadow="2"
     inkscape:window-width="1366"
     inkscape:window-height="716"
     id="namedview25383"
     showgrid="true"
     inkscape:zoom="11.313709"
     inkscape:cx="25.459173"
     inkscape:cy="15.113441"
     inkscape:window-x="-8"
     inkscape:window-y="-8"
     inkscape:window-maximized="1"
     inkscape:current-layer="svg25381">
    <inkscape:grid
       type="xygrid"
       id="grid25932" />
  </sodipodi:namedview>
  <path
     style="font-style:normal;font-weight:normal;font-size:30.9493618px;line-height:1.25;font-family:sans-serif;letter-spacing:0px;word-spacing:0px;fill:#4b4b4f;fill-opacity:1;stroke:none;stroke-width:0.77373403;"
     d="M 15.892578 3.0058594 L 4 25.007812 L 7.6425781 25.007812 L 10.300781 19.869141 L 18.068359 19.869141 L 18.28125 21.71875 L 21.435547 18.564453 L 19.308594 3.0058594 L 15.892578 3.0058594 z M 16.603516 7.6894531 L 16.693359 7.7050781 L 17.722656 16.802734 L 11.888672 16.802734 L 16.603516 7.6894531 z "
     id="text25936" />
  <path
     d="m4 27c-.554 0-1 .446-1 1s.446 1 1 1h6.248047 5.521484.460938 5.521484 6.248047c.1385 0 .270906-.02766.390625-.07813.359156-.151401.609375-.50637.609375-.92187 0-.554-.446-1-1-1h-4.28125-6.726562-1.984376-6.726562z"
     fill="#69696e"
     id="path25365"
     style="fill:#4b4b4f;fill-opacity:1" />
  <g
     fill="#e68497"
     transform="matrix(1.1653014 0 0 1.1661584 3.181684 3.178357)"
     id="g25379">
    <path
       d="m16.518661 20.388672 6.495399-6.642082-2.741063-2.75182-6.590273 6.561871z"
       id="path25369" />
    <path
       d="m15.772982 22.159365c.189562 0 .429608-.133383.44116-.329846l.316238-1.423269-2.847656-2.849609-.435626 1.659226c-.0821.318377-.208228.48954.08228.779668l1.835938 1.833984c.145254.145064.418106.329846.607668.329846z"
       fill="#e7acbc"
       id="path25371" />
    <path
       d="m20.355929 10.602262c-.09431.0013-.184424.03917-.251411.105515l-6.590301 6.56201c-.04606.04577-.07905.10302-.09554.165809l-.435778 1.659763c-.000569.000565-.0011.0011-.0017.0017-.0337.130688-.09902.260727-.108945.473979-.0099.213251.09746.464282.286608.653186l1.835295 1.833947c.0988.09867.22144.194286.362031.276347.140591.08207.291132.15911.504497.15911.180396 0 .343642-.05253.492764-.154085.149161-.101592.297638-.276905.311789-.517565l-.107269.236152 6.105605-6.103388c.06701-.06667.105475-.156751.107269-.251226l.694204-1.979373c.0018-.0983-.03633-.19313-.105592-.26295l-2.740372-2.751757c-.06959-.06983-.16453-.1085-.263143-.107189z"
       fill="none"
       stroke="#b6496c"
       id="path25373" />
    <path
       d="m16.518661 20.388672 6.495399-6.642082-.725247 2.222352-6.352791 6.173541z"
       fill="#ab4263"
       id="path25375" />
    <path
       d="m14.170359 17.919585 6.151557-6.038122 2.362527 2.149586"
       fill="none"
       stroke="#f398b3"
       stroke-width=".857832"
       id="path25377" />
  </g>
</svg>
